src/collection/traits/Ear/Ear.svg

<svg width="546" height="546" viewBox="0 0 546 546" fill="none" xmlns="http://www.w3.org/2000/svg">
<g clip-path="url(#clip0_72_2106)">
<mask id="mask0_72_2106" style="mask-type:luminance" maskUnits="userSpaceOnUse" x="0" y="0" width="546" height="546">
<path d="M545.1 0H0V545.1H545.1V0Z" fill="white"/>
</mask>
<g mask="url(#mask0_72_2106)">
<path d="M127 359.46C126.626 360.74 126.066 361.922 125.318 363.005C115.601 378.269 80.1873 372.853 73.9269 336.515C70.75 317.706 76.076 306.184 84.7658 302.934C94.1097 299.488 107.191 305.495 117.469 322.334" fill="#FFC68E"/>
<path d="M130.4 359.6C130 360.9 129.4 362.1 128.6 363.2C120.3 375.6 98.9999 373.9 84.0999 357.8C75.3999 341.3 71.4999 306 96.6999 302.7C105.7 303.1 111.5 308.3 120.3 322L130.4 359.6Z" fill="#D18154"/>
<path d="M105.7 327.3C106 327.6 97.6999 313.4 92.8999 317.9C88.0999 322.4 92.8999 324.2 92.8999 324.2C92.8999 324.2 95.9999 318.5 105.7 327.3Z" fill="#FFC68E"/>
<path d="M87.8999 315.3C96.5999 312.8 103.3 320.6 106.3 325.9" stroke="black" stroke-width="5" stroke-linecap="round" stroke-linejoin="round"/>
<path d="M94.3999 315.3C94.3999 315.3 85.3999 336.3 102.3 349.4" stroke="black" stroke-width="5" stroke-linecap="round" stroke-linejoin="round"/>
<path d="M130.4 359.6C123.8 379.3 80.8 375.8 73.6 336.4C66.4 297 99 288.9 120.3 322" stroke="black" stroke-width="5" stroke-linecap="round" stroke-linejoin="round"/>
</g>
</g>
<defs>
<clipPath id="clip0_72_2106">
<rect width="545.1" height="545.1" fill="white"/>
</clipPath>
</defs>
</svg>

<?xml version="1.0" encoding="utf-8"?>
<!-- Generator: Adobe Illustrator 27.7.0, SVG Export Plug-In . SVG Version: 6.00 Build 0)  -->
<svg version="1.1" id="Layer_1" xmlns="http://www.w3.org/2000/svg" xmlns:xlink="http://www.w3.org/1999/xlink" x="0px" y="0px"
	 viewBox="0 0 545.1 545.1" style="enable-background:new 0 0 545.1 545.1;" xml:space="preserve">
<style type="text/css">
	.st0{clip-path:url(#SVGID_00000091725800430322690200000008729864011767080344_);}
	.st1{fill:#FFC68E;stroke:#000000;stroke-width:5;stroke-linecap:round;stroke-linejoin:round;}
	.st2{fill:#D18154;}
	.st3{fill:#FDC68E;}
	.st4{fill:none;stroke:#000000;stroke-width:5;stroke-linecap:round;stroke-linejoin:round;}
</style>
<g>
	<g id="Layer_2_00000000186671509888000160000005899514240870794923_">
		<g id="Layer_1-2">
			<g>
				<defs>
					<rect id="SVGID_1_" y="0" width="545.1" height="545.1"/>
				</defs>
				<clipPath id="SVGID_00000174590970563578812940000009964407826609225404_">
					<use xlink:href="#SVGID_1_"  style="overflow:visible;"/>
				</clipPath>
				<g style="clip-path:url(#SVGID_00000174590970563578812940000009964407826609225404_);">
					<g>
						<path class="st1" d="M130.4,359.6c-0.4,1.3-1,2.5-1.8,3.6c-10.4,15.5-48.3,10-55-26.9c-3.4-19.1,2.3-30.8,11.6-34.1h0
							c10-3.5,24,2.6,35,19.7"/>
						<path class="st2" d="M130.4,359.6c-0.4,1.3-1,2.5-1.8,3.6c-8.3,12.4-29.6,10.7-44.5-5.4c-8.7-16.5-12.6-51.8,12.6-55.1
							c9,0.4,14.8,5.6,23.6,19.3L130.4,359.6L130.4,359.6z"/>
						<path class="st3" d="M105.7,327.3c0.3,0.3-8-13.9-12.8-9.4c-4.8,4.5,0,6.3,0,6.3S96,318.5,105.7,327.3L105.7,327.3z"/>
						<path class="st4" d="M87.9,315.3c8.7-2.5,15.4,5.3,18.4,10.6"/>
						<path class="st4" d="M94.4,315.3c0,0-9,21,7.9,34.1"/>
						<path class="st4" d="M130.4,359.6c-6.6,19.7-49.6,16.2-56.8-23.2S99,288.9,120.3,322"/>
					</g>
				</g>
			</g>
		</g>
	</g>
</g>
</svg>
